X:1
T:The Holly Bush
R:reel
M:4/4
L:1/8
K:Dmix
|:~A2FA DAFA|ABde fded|cG~G2 EG~G2|cedc AGFG|
|~A2FA DAFA|ABde fded|cG~G2 cedB|cAGE DEFG:|
|:Add^c defg|adde dcAB|~c2cB cdeg|aged cAGc|
|Add^c defg|adde dcAB|~c2cB cedB|cAGE DEFG:|